X: 16904
T: Haunted House, The
R: polka
M: 2/4
K: Edorian
|:A|B>e ef|ge dB|Ae GA/B/|GA Bc|
Be ef|ge d>c/B/|Ae dc|B2 B:|
|:a|be e>f|ge dg|Ae cd|ef ga|
be ef|ge de/g/|Ae dc|B2 B:|
|:a|be be|be e>g/e/|ae ae|ae e>a/e/|
be be|be e>d/B/|Ae dc|B2 B:|

